packages/icons/src/assets/buttons.svg

<svg width="16" height="16" viewBox="0 0 16 16" fill="currentColor" xmlns="http://www.w3.org/2000/svg">
<g clip-path="url(#clip0_5025_383)">
<path fill-rule="evenodd" clip-rule="evenodd" d="M5.02832 6.50977C4.55497 5.46162 5.62913 4.38436 6.67871 4.85449L15.2666 8.7041C16.1927 9.11934 16.2475 10.3794 15.4346 10.8955L15.2607 10.9873L13.0361 11.9688L15.8838 14.8164L15 15.7002L12.1465 12.8467L11.1797 15.0566L11.0879 15.2305C10.6084 15.9907 9.47752 15.9979 8.98926 15.2432L8.89551 15.0693L5.02832 6.50977ZM10.0352 14.5557L11.0703 12.1904L11.1738 11.9805C11.4373 11.5053 11.8506 11.1264 12.3516 10.9053L14.7559 9.84473L6.16699 5.99512L10.0352 14.5557Z" fill="currentColor"/>
<path d="M14.7822 1.5C15.4577 1.51709 16 2.07042 16 2.75V6.40039H14.75V2.75H1.25V9.75H5V11H1.21777C0.55302 10.9832 0.0168223 10.447 0 9.78223V2.75C9.90938e-09 2.07042 0.542311 1.51709 1.21777 1.5H14.7822Z" fill="currentColor"/>
</g>
<defs>
<clipPath id="clip0_5025_383">
<rect width="16" height="16" fill="white"/>
</clipPath>
</defs>
</svg>

<svg xmlns="http://www.w3.org/2000/svg" width="16" height="16" viewBox="0 0 16 16"><path fill-rule="evenodd" d="M5.028 6.51c-.473-1.048.601-2.126 1.65-1.656l8.589 3.85c.926.415.98 1.675.168 2.191l-.174.092-2.225.982 2.848 2.847L15 15.7l-2.854-2.853-.966 2.21-.092.173c-.48.76-1.61.768-2.099.013l-.093-.174zm5.007 8.046 1.035-2.366.104-.21a2.5 2.5 0 0 1 1.178-1.075l2.404-1.06-8.589-3.85z"/><path d="M14.782 1.5A1.25 1.25 0 0 1 16 2.75V6.4h-1.25V2.75H1.25v7H5V11H1.218A1.25 1.25 0 0 1 0 9.782V2.75c0-.68.542-1.233 1.218-1.25z"/></svg>
